images/3233230.svg

<?xml version="1.0" encoding="UTF-8"?>
<svg xmlns="http://www.w3.org/2000/svg" xmlns:xlink="http://www.w3.org/1999/xlink" width="300pt" height="300pt" viewBox="0 0 300 300" version="1.1">
<defs>
<g>
<symbol overflow="visible" id="glyph0-0">
<path style="stroke:none;" d="M 0.453125 1.59375 L 0.453125 -6.34375 L 4.953125 -6.34375 L 4.953125 1.59375 Z M 0.953125 1.09375 L 4.453125 1.09375 L 4.453125 -5.84375 L 0.953125 -5.84375 Z M 0.953125 1.09375 "/>
</symbol>
<symbol overflow="visible" id="glyph0-1">
<path style="stroke:none;" d="M 0.890625 -6.5625 L 2.078125 -6.5625 L 4.984375 -1.078125 L 4.984375 -6.5625 L 5.84375 -6.5625 L 5.84375 0 L 4.65625 0 L 1.75 -5.484375 L 1.75 0 L 0.890625 0 Z M 0.890625 -6.5625 "/>
</symbol>
<symbol overflow="visible" id="glyph0-2">
<path style="stroke:none;" d="M 0.890625 -6.5625 L 1.765625 -6.5625 L 1.765625 -3.875 L 5 -3.875 L 5 -6.5625 L 5.890625 -6.5625 L 5.890625 0 L 5 0 L 5 -3.125 L 1.765625 -3.125 L 1.765625 0 L 0.890625 0 Z M 0.890625 -6.5625 "/>
</symbol>
<symbol overflow="visible" id="glyph0-3">
<path style="stroke:none;" d="M 3.546875 -5.953125 C 2.898438 -5.953125 2.382812 -5.710938 2 -5.234375 C 1.625 -4.753906 1.4375 -4.101562 1.4375 -3.28125 C 1.4375 -2.445312 1.625 -1.789062 2 -1.3125 C 2.382812 -0.832031 2.898438 -0.59375 3.546875 -0.59375 C 4.191406 -0.59375 4.703125 -0.832031 5.078125 -1.3125 C 5.453125 -1.789062 5.640625 -2.445312 5.640625 -3.28125 C 5.640625 -4.101562 5.453125 -4.753906 5.078125 -5.234375 C 4.703125 -5.710938 4.191406 -5.953125 3.546875 -5.953125 Z M 3.546875 -6.6875 C 4.460938 -6.6875 5.195312 -6.375 5.75 -5.75 C 6.300781 -5.132812 6.578125 -4.3125 6.578125 -3.28125 C 6.578125 -2.238281 6.300781 -1.410156 5.75 -0.796875 C 5.195312 -0.179688 4.460938 0.125 3.546875 0.125 C 2.617188 0.125 1.878906 -0.179688 1.328125 -0.796875 C 0.773438 -1.410156 0.5 -2.238281 0.5 -3.28125 C 0.5 -4.3125 0.773438 -5.132812 1.328125 -5.75 C 1.878906 -6.375 2.617188 -6.6875 3.546875 -6.6875 Z M 3.546875 -6.6875 "/>
</symbol>
<symbol overflow="visible" id="glyph0-4">
<path style="stroke:none;" d="M 0.890625 -6.5625 L 4.65625 -6.5625 L 4.65625 -5.8125 L 1.765625 -5.8125 L 1.765625 -3.875 L 4.375 -3.875 L 4.375 -3.140625 L 1.765625 -3.140625 L 1.765625 0 L 0.890625 0 Z M 0.890625 -6.5625 "/>
</symbol>
</g>
</defs>
<g id="surface36677">
<rect x="0" y="0" width="300" height="300" style="fill:rgb(100%,100%,100%);fill-opacity:1;stroke:none;"/>
<path style="fill:none;stroke-width:1.2;stroke-linecap:butt;stroke-linejoin:miter;stroke:rgb(0%,0%,0%);stroke-opacity:1;stroke-miterlimit:10;" d="M 256.996094 232.472656 L 232.355469 226.238281 "/>
<path style="fill:none;stroke-width:1.2;stroke-linecap:butt;stroke-linejoin:miter;stroke:rgb(0%,0%,0%);stroke-opacity:1;stroke-miterlimit:10;" d="M 232.355469 226.238281 L 228.898438 214.011719 "/>
<path style="fill:none;stroke-width:1.2;stroke-linecap:butt;stroke-linejoin:miter;stroke:rgb(0%,0%,100%);stroke-opacity:1;stroke-miterlimit:10;" d="M 228.898438 214.011719 L 225.4375 201.785156 "/>
<path style="fill:none;stroke-width:1.2;stroke-linecap:butt;stroke-linejoin:miter;stroke:rgb(0%,0%,100%);stroke-opacity:1;stroke-miterlimit:10;" d="M 225.4375 201.785156 L 213.117188 198.667969 "/>
<path style="fill:none;stroke-width:1.2;stroke-linecap:butt;stroke-linejoin:miter;stroke:rgb(0%,0%,0%);stroke-opacity:1;stroke-miterlimit:10;" d="M 213.117188 198.667969 L 200.796875 195.550781 "/>
<path style=" stroke:none;fill-rule:nonzero;fill:rgb(100%,100%,100%);fill-opacity:1;" d="M 218.4375 196.285156 L 232.4375 196.285156 L 232.4375 207.285156 L 218.4375 207.285156 Z M 218.4375 196.285156 "/>
<g style="fill:rgb(0%,0%,100%);fill-opacity:1;">
  <use xlink:href="#glyph0-1" x="218.4375" y="204.948242"/>
  <use xlink:href="#glyph0-2" x="225.415039" y="204.948242"/>
</g>
<path style="fill:none;stroke-width:1.2;stroke-linecap:butt;stroke-linejoin:miter;stroke:rgb(0%,0%,0%);stroke-opacity:1;stroke-miterlimit:10;" d="M 200.796875 195.550781 L 191.9375 204.660156 "/>
<path style="fill:none;stroke-width:1.2;stroke-linecap:butt;stroke-linejoin:miter;stroke:rgb(0%,0%,100%);stroke-opacity:1;stroke-miterlimit:10;" d="M 191.9375 204.660156 L 183.082031 213.773438 "/>
<path style="fill:none;stroke-width:1.2;stroke-linecap:butt;stroke-linejoin:miter;stroke:rgb(0%,0%,0%);stroke-opacity:1;stroke-miterlimit:10;" d="M 194.738281 193.203125 L 187.652344 200.492188 "/>
<path style="fill:none;stroke-width:1.2;stroke-linecap:butt;stroke-linejoin:miter;stroke:rgb(0%,0%,100%);stroke-opacity:1;stroke-miterlimit:10;" d="M 187.652344 200.492188 L 180.566406 207.78125 "/>
<path style="fill:none;stroke-width:1.2;stroke-linecap:butt;stroke-linejoin:miter;stroke:rgb(0%,0%,100%);stroke-opacity:1;stroke-miterlimit:10;" d="M 193.878906 171.097656 L 197.339844 183.324219 "/>
<path style="fill:none;stroke-width:1.2;stroke-linecap:butt;stroke-linejoin:miter;stroke:rgb(0%,0%,0%);stroke-opacity:1;stroke-miterlimit:10;" d="M 197.339844 183.324219 L 200.796875 195.550781 "/>
<path style="fill:none;stroke-width:1.2;stroke-linecap:butt;stroke-linejoin:miter;stroke:rgb(0%,0%,100%);stroke-opacity:1;stroke-miterlimit:10;" d="M 183.082031 213.773438 L 170.761719 210.65625 "/>
<path style="fill:none;stroke-width:1.2;stroke-linecap:butt;stroke-linejoin:miter;stroke:rgb(0%,0%,0%);stroke-opacity:1;stroke-miterlimit:10;" d="M 170.761719 210.65625 L 158.441406 207.539062 "/>
<path style=" stroke:none;fill-rule:nonzero;fill:rgb(100%,100%,100%);fill-opacity:1;" d="M 180.082031 208.273438 L 187.082031 208.273438 L 187.082031 219.273438 L 180.082031 219.273438 Z M 180.082031 208.273438 "/>
<g style="fill:rgb(0%,0%,100%);fill-opacity:1;">
  <use xlink:href="#glyph0-1" x="180.082031" y="216.936523"/>
</g>
<path style="fill:none;stroke-width:1.2;stroke-linecap:butt;stroke-linejoin:miter;stroke:rgb(0%,0%,0%);stroke-opacity:1;stroke-miterlimit:10;" d="M 158.441406 207.539062 L 151.523438 183.082031 "/>
<path style="fill:none;stroke-width:1.2;stroke-linecap:butt;stroke-linejoin:miter;stroke:rgb(0%,0%,0%);stroke-opacity:1;stroke-miterlimit:10;" d="M 163.503906 203.464844 L 157.96875 183.898438 "/>
<path style="fill:none;stroke-width:1.2;stroke-linecap:butt;stroke-linejoin:miter;stroke:rgb(0%,0%,0%);stroke-opacity:1;stroke-miterlimit:10;" d="M 151.523438 183.082031 L 169.238281 164.863281 "/>
<path style="fill:none;stroke-width:1.2;stroke-linecap:butt;stroke-linejoin:miter;stroke:rgb(0%,0%,100%);stroke-opacity:1;stroke-miterlimit:10;" d="M 126.882812 176.847656 L 139.203125 179.964844 "/>
<path style="fill:none;stroke-width:1.2;stroke-linecap:butt;stroke-linejoin:miter;stroke:rgb(0%,0%,0%);stroke-opacity:1;stroke-miterlimit:10;" d="M 139.203125 179.964844 L 151.523438 183.082031 "/>
<path style="fill:none;stroke-width:1.2;stroke-linecap:butt;stroke-linejoin:miter;stroke:rgb(0%,0%,0%);stroke-opacity:1;stroke-miterlimit:10;" d="M 169.238281 164.863281 L 181.558594 167.980469 "/>
<path style="fill:none;stroke-width:1.2;stroke-linecap:butt;stroke-linejoin:miter;stroke:rgb(0%,0%,100%);stroke-opacity:1;stroke-miterlimit:10;" d="M 181.558594 167.980469 L 193.878906 171.097656 "/>
<path style="fill:none;stroke-width:1.2;stroke-linecap:butt;stroke-linejoin:miter;stroke:rgb(0%,0%,0%);stroke-opacity:1;stroke-miterlimit:10;" d="M 170.238281 171.285156 L 180.09375 173.777344 "/>
<path style="fill:none;stroke-width:1.2;stroke-linecap:butt;stroke-linejoin:miter;stroke:rgb(0%,0%,100%);stroke-opacity:1;stroke-miterlimit:10;" d="M 180.09375 173.777344 L 189.949219 176.269531 "/>
<path style="fill:none;stroke-width:1.2;stroke-linecap:butt;stroke-linejoin:miter;stroke:rgb(0%,0%,0%);stroke-opacity:1;stroke-miterlimit:10;" d="M 169.238281 164.863281 L 165.78125 152.636719 "/>
<path style="fill:none;stroke-width:1.2;stroke-linecap:butt;stroke-linejoin:miter;stroke:rgb(0%,0%,100%);stroke-opacity:1;stroke-miterlimit:10;" d="M 165.78125 152.636719 L 162.320312 140.410156 "/>
<path style=" stroke:none;fill-rule:nonzero;fill:rgb(100%,100%,100%);fill-opacity:1;" d="M 190.878906 165.597656 L 197.878906 165.597656 L 197.878906 176.597656 L 190.878906 176.597656 Z M 190.878906 165.597656 "/>
<g style="fill:rgb(0%,0%,100%);fill-opacity:1;">
  <use xlink:href="#glyph0-1" x="190.878906" y="174.260742"/>
</g>
<path style="fill:none;stroke-width:1.2;stroke-linecap:butt;stroke-linejoin:miter;stroke:rgb(0%,0%,100%);stroke-opacity:1;stroke-miterlimit:10;" d="M 162.320312 140.410156 L 150 137.292969 "/>
<path style="fill:none;stroke-width:1.2;stroke-linecap:butt;stroke-linejoin:miter;stroke:rgb(0%,0%,0%);stroke-opacity:1;stroke-miterlimit:10;" d="M 150 137.292969 L 137.679688 134.175781 "/>
<path style="fill:none;stroke-width:1.2;stroke-linecap:butt;stroke-linejoin:miter;stroke:rgb(0%,0%,100%);stroke-opacity:1;stroke-miterlimit:10;" d="M 162.320312 140.410156 L 171.179688 131.296875 "/>
<path style="fill:none;stroke-width:1.2;stroke-linecap:butt;stroke-linejoin:miter;stroke:rgb(0%,0%,0%);stroke-opacity:1;stroke-miterlimit:10;" d="M 171.179688 131.296875 L 180.039062 122.1875 "/>
<path style=" stroke:none;fill-rule:nonzero;fill:rgb(100%,100%,100%);fill-opacity:1;" d="M 159.320312 134.910156 L 166.320312 134.910156 L 166.320312 145.910156 L 159.320312 145.910156 Z M 159.320312 134.910156 "/>
<g style="fill:rgb(0%,0%,100%);fill-opacity:1;">
  <use xlink:href="#glyph0-1" x="159.320312" y="143.573242"/>
</g>
<path style="fill:none;stroke-width:1.2;stroke-linecap:butt;stroke-linejoin:miter;stroke:rgb(0%,0%,0%);stroke-opacity:1;stroke-miterlimit:10;" d="M 140.558594 133.359375 L 137.097656 121.132812 "/>
<path style="fill:none;stroke-width:1.2;stroke-linecap:butt;stroke-linejoin:miter;stroke:rgb(100%,0%,0%);stroke-opacity:1;stroke-miterlimit:10;" d="M 137.097656 121.132812 L 133.636719 108.90625 "/>
<path style="fill:none;stroke-width:1.2;stroke-linecap:butt;stroke-linejoin:miter;stroke:rgb(0%,0%,0%);stroke-opacity:1;stroke-miterlimit:10;" d="M 134.804688 134.988281 L 131.34375 122.761719 "/>
<path style="fill:none;stroke-width:1.2;stroke-linecap:butt;stroke-linejoin:miter;stroke:rgb(100%,0%,0%);stroke-opacity:1;stroke-miterlimit:10;" d="M 131.34375 122.761719 L 127.882812 110.535156 "/>
<path style="fill:none;stroke-width:1.2;stroke-linecap:butt;stroke-linejoin:miter;stroke:rgb(0%,0%,0%);stroke-opacity:1;stroke-miterlimit:10;" d="M 137.679688 134.175781 L 119.960938 152.394531 "/>
<path style=" stroke:none;fill-rule:nonzero;fill:rgb(100%,100%,100%);fill-opacity:1;" d="M 126.761719 104.21875 L 134.761719 104.21875 L 134.761719 115.21875 L 126.761719 115.21875 Z M 126.761719 104.21875 "/>
<g style="fill:rgb(100%,0%,0%);fill-opacity:1;">
  <use xlink:href="#glyph0-3" x="126.761719" y="112.881836"/>
</g>
<path style="fill:none;stroke-width:1.2;stroke-linecap:butt;stroke-linejoin:miter;stroke:rgb(0%,0%,0%);stroke-opacity:1;stroke-miterlimit:10;" d="M 119.960938 152.394531 L 123.421875 164.621094 "/>
<path style="fill:none;stroke-width:1.2;stroke-linecap:butt;stroke-linejoin:miter;stroke:rgb(0%,0%,100%);stroke-opacity:1;stroke-miterlimit:10;" d="M 123.421875 164.621094 L 126.882812 176.847656 "/>
<path style="fill:none;stroke-width:1.2;stroke-linecap:butt;stroke-linejoin:miter;stroke:rgb(0%,0%,0%);stroke-opacity:1;stroke-miterlimit:10;" d="M 126.410156 153.210938 L 129.175781 162.992188 "/>
<path style="fill:none;stroke-width:1.2;stroke-linecap:butt;stroke-linejoin:miter;stroke:rgb(0%,0%,100%);stroke-opacity:1;stroke-miterlimit:10;" d="M 129.175781 162.992188 L 131.945312 172.777344 "/>
<path style="fill:none;stroke-width:1.2;stroke-linecap:butt;stroke-linejoin:miter;stroke:rgb(0%,0%,0%);stroke-opacity:1;stroke-miterlimit:10;" d="M 119.960938 152.394531 L 95.324219 146.160156 "/>
<path style=" stroke:none;fill-rule:nonzero;fill:rgb(100%,100%,100%);fill-opacity:1;" d="M 123.882812 171.347656 L 130.882812 171.347656 L 130.882812 182.347656 L 123.882812 182.347656 Z M 123.882812 171.347656 "/>
<g style="fill:rgb(0%,0%,100%);fill-opacity:1;">
  <use xlink:href="#glyph0-1" x="123.882812" y="180.010742"/>
</g>
<path style="fill:none;stroke-width:1.2;stroke-linecap:butt;stroke-linejoin:miter;stroke:rgb(0%,0%,0%);stroke-opacity:1;stroke-miterlimit:10;" d="M 95.324219 146.160156 L 88.402344 121.707031 "/>
<path style="fill:none;stroke-width:1.2;stroke-linecap:butt;stroke-linejoin:miter;stroke:rgb(0%,0%,0%);stroke-opacity:1;stroke-miterlimit:10;" d="M 88.878906 145.34375 L 83.34375 125.78125 "/>
<path style="fill:none;stroke-width:1.2;stroke-linecap:butt;stroke-linejoin:miter;stroke:rgb(0%,0%,0%);stroke-opacity:1;stroke-miterlimit:10;" d="M 77.605469 164.382812 L 95.324219 146.160156 "/>
<path style="fill:none;stroke-width:1.2;stroke-linecap:butt;stroke-linejoin:miter;stroke:rgb(0%,0%,0%);stroke-opacity:1;stroke-miterlimit:10;" d="M 88.402344 121.707031 L 63.765625 115.472656 "/>
<path style="fill:none;stroke-width:1.2;stroke-linecap:butt;stroke-linejoin:miter;stroke:rgb(0%,0%,0%);stroke-opacity:1;stroke-miterlimit:10;" d="M 63.765625 115.472656 L 46.046875 133.691406 "/>
<path style="fill:none;stroke-width:1.2;stroke-linecap:butt;stroke-linejoin:miter;stroke:rgb(0%,0%,0%);stroke-opacity:1;stroke-miterlimit:10;" d="M 66.28125 121.464844 L 52.105469 136.039062 "/>
<path style="fill:none;stroke-width:1.2;stroke-linecap:butt;stroke-linejoin:miter;stroke:rgb(0%,0%,0%);stroke-opacity:1;stroke-miterlimit:10;" d="M 63.765625 115.472656 L 60.304688 103.246094 "/>
<path style="fill:none;stroke-width:1.2;stroke-linecap:butt;stroke-linejoin:miter;stroke:rgb(20%,80%,80%);stroke-opacity:1;stroke-miterlimit:10;" d="M 60.304688 103.246094 L 56.84375 91.019531 "/>
<path style="fill:none;stroke-width:1.2;stroke-linecap:butt;stroke-linejoin:miter;stroke:rgb(0%,0%,0%);stroke-opacity:1;stroke-miterlimit:10;" d="M 46.046875 133.691406 L 52.96875 158.148438 "/>
<path style="fill:none;stroke-width:1.2;stroke-linecap:butt;stroke-linejoin:miter;stroke:rgb(0%,0%,0%);stroke-opacity:1;stroke-miterlimit:10;" d="M 52.96875 158.148438 L 77.605469 164.382812 "/>
<path style="fill:none;stroke-width:1.2;stroke-linecap:butt;stroke-linejoin:miter;stroke:rgb(0%,0%,0%);stroke-opacity:1;stroke-miterlimit:10;" d="M 56.898438 152.972656 L 76.609375 157.960938 "/>
<path style="fill:none;stroke-width:1.2;stroke-linecap:butt;stroke-linejoin:miter;stroke:rgb(0%,0%,0%);stroke-opacity:1;stroke-miterlimit:10;" d="M 52.96875 158.148438 L 44.109375 167.257812 "/>
<path style="fill:none;stroke-width:1.2;stroke-linecap:butt;stroke-linejoin:miter;stroke:rgb(20%,80%,80%);stroke-opacity:1;stroke-miterlimit:10;" d="M 44.109375 167.257812 L 35.25 176.367188 "/>
<path style=" stroke:none;fill-rule:nonzero;fill:rgb(100%,100%,100%);fill-opacity:1;" d="M 29.25 170.867188 L 35.25 170.867188 L 35.25 181.867188 L 29.25 181.867188 Z M 29.25 170.867188 "/>
<g style="fill:rgb(20%,80%,80%);fill-opacity:1;">
  <use xlink:href="#glyph0-4" x="29.25" y="179.530273"/>
</g>
<path style=" stroke:none;fill-rule:nonzero;fill:rgb(100%,100%,100%);fill-opacity:1;" d="M 53.84375 85.519531 L 59.84375 85.519531 L 59.84375 96.519531 L 53.84375 96.519531 Z M 53.84375 85.519531 "/>
<g style="fill:rgb(20%,80%,80%);fill-opacity:1;">
  <use xlink:href="#glyph0-4" x="53.84375" y="94.182617"/>
</g>
<path style="fill:none;stroke-width:1.2;stroke-linecap:butt;stroke-linejoin:miter;stroke:rgb(0%,0%,0%);stroke-opacity:1;stroke-miterlimit:10;" d="M 180.039062 122.1875 L 204.675781 128.421875 "/>
<path style="fill:none;stroke-width:1.2;stroke-linecap:butt;stroke-linejoin:miter;stroke:rgb(0%,0%,0%);stroke-opacity:1;stroke-miterlimit:10;" d="M 204.675781 128.421875 L 222.394531 110.203125 "/>
<path style="fill:none;stroke-width:1.2;stroke-linecap:butt;stroke-linejoin:miter;stroke:rgb(0%,0%,0%);stroke-opacity:1;stroke-miterlimit:10;" d="M 222.394531 110.203125 L 247.03125 116.433594 "/>
<path style="fill:none;stroke-width:1.2;stroke-linecap:butt;stroke-linejoin:miter;stroke:rgb(0%,0%,0%);stroke-opacity:1;stroke-miterlimit:10;" d="M 226.324219 105.027344 L 246.035156 110.015625 "/>
<path style="fill:none;stroke-width:1.2;stroke-linecap:butt;stroke-linejoin:miter;stroke:rgb(0%,0%,0%);stroke-opacity:1;stroke-miterlimit:10;" d="M 215.472656 85.746094 L 222.394531 110.203125 "/>
<path style="fill:none;stroke-width:1.2;stroke-linecap:butt;stroke-linejoin:miter;stroke:rgb(0%,0%,0%);stroke-opacity:1;stroke-miterlimit:10;" d="M 247.03125 116.433594 L 264.75 98.214844 "/>
<path style="fill:none;stroke-width:1.2;stroke-linecap:butt;stroke-linejoin:miter;stroke:rgb(0%,0%,0%);stroke-opacity:1;stroke-miterlimit:10;" d="M 264.75 98.214844 L 257.828125 73.761719 "/>
<path style="fill:none;stroke-width:1.2;stroke-linecap:butt;stroke-linejoin:miter;stroke:rgb(0%,0%,0%);stroke-opacity:1;stroke-miterlimit:10;" d="M 258.304688 97.398438 L 252.769531 77.835938 "/>
<path style="fill:none;stroke-width:1.2;stroke-linecap:butt;stroke-linejoin:miter;stroke:rgb(0%,0%,0%);stroke-opacity:1;stroke-miterlimit:10;" d="M 257.828125 73.761719 L 233.191406 67.527344 "/>
<path style="fill:none;stroke-width:1.2;stroke-linecap:butt;stroke-linejoin:miter;stroke:rgb(0%,0%,0%);stroke-opacity:1;stroke-miterlimit:10;" d="M 233.191406 67.527344 L 215.472656 85.746094 "/>
<path style="fill:none;stroke-width:1.2;stroke-linecap:butt;stroke-linejoin:miter;stroke:rgb(0%,0%,0%);stroke-opacity:1;stroke-miterlimit:10;" d="M 235.707031 73.515625 L 221.53125 88.09375 "/>
</g>
</svg>

<svg xmlns="http://www.w3.org/2000/svg" xmlns:xlink="http://www.w3.org/1999/xlink" width="300pt" height="300pt" viewBox="0 0 300 300"><defs><symbol overflow="visible"><path d="M.453 1.594v-7.938h4.5v7.938zm.5-.5h3.5v-6.938h-3.5zm0 0"/></symbol><symbol overflow="visible" id="a"><path d="M.89-6.563H2.08l2.906 5.485v-5.484h.86V0H4.656L1.75-5.484V0H.89zm0 0"/></symbol><symbol overflow="visible" id="b"><path d="M.89-6.563h.876v2.688H5v-2.688h.89V0H5v-3.125H1.766V0H.89zm0 0"/></symbol><symbol overflow="visible" id="c"><path d="M3.547-5.953c-.65 0-1.164.242-1.547.72-.375.48-.563 1.13-.563 1.952 0 .835.188 1.49.563 1.967.383.48.898.72 1.547.72.644 0 1.156-.24 1.53-.72.376-.476.564-1.132.564-1.968 0-.822-.187-1.474-.562-1.954-.375-.477-.887-.72-1.53-.72zm0-.734c.914 0 1.648.312 2.203.937.55.617.828 1.438.828 2.47 0 1.042-.277 1.87-.828 2.483-.555.617-1.29.922-2.203.922-.93 0-1.668-.305-2.22-.922C.774-1.41.5-2.237.5-3.28c0-1.033.273-1.853.828-2.47.55-.625 1.29-.938 2.22-.938zm0 0"/></symbol><symbol overflow="visible" id="d"><path d="M.89-6.563h3.766v.75h-2.89v1.938h2.61v.734h-2.61V0H.89zm0 0"/></symbol></defs><g><path fill="#fff" d="M0 0h300v300H0z"/><path d="M256.996 232.473l-24.64-6.235M232.355 226.238l-3.457-12.226" stroke-width="1.2" stroke="#000" stroke-miterlimit="10" fill="none"/><path d="M228.898 214.012l-3.46-12.227M225.438 201.785l-12.32-3.117" stroke-width="1.2" stroke="#00f" stroke-miterlimit="10" fill="none"/><path d="M213.117 198.668l-12.32-3.117" stroke-width="1.2" stroke="#000" stroke-miterlimit="10" fill="none"/><path d="M218.438 196.285h14v11h-14zm0 0" fill="#fff"/><g fill="#00f"><use xlink:href="#a" x="218.438" y="204.948"/><use xlink:href="#b" x="225.415" y="204.948"/></g><path d="M200.797 195.55l-8.86 9.11" stroke-width="1.2" stroke="#000" stroke-miterlimit="10" fill="none"/><path d="M191.938 204.66l-8.856 9.113" stroke-width="1.2" stroke="#00f" stroke-miterlimit="10" fill="none"/><path d="M194.738 193.203l-7.086 7.29" stroke-width="1.2" stroke="#000" stroke-miterlimit="10" fill="none"/><path d="M187.652 200.492l-7.086 7.29M193.88 171.098l3.46 12.226" stroke-width="1.2" stroke="#00f" stroke-miterlimit="10" fill="none"/><path d="M197.34 183.324l3.457 12.227" stroke-width="1.2" stroke="#000" stroke-miterlimit="10" fill="none"/><path d="M183.082 213.773l-12.32-3.117" stroke-width="1.2" stroke="#00f" stroke-miterlimit="10" fill="none"/><path d="M170.762 210.656l-12.32-3.117" stroke-width="1.2" stroke="#000" stroke-miterlimit="10" fill="none"/><path d="M180.082 208.273h7v11h-7zm0 0" fill="#fff"/><use xlink:href="#a" x="180.082" y="216.937" fill="#00f"/><path d="M158.44 207.54l-6.917-24.458M163.504 203.465l-5.535-19.567M151.523 183.082l17.715-18.22" stroke-width="1.2" stroke="#000" stroke-miterlimit="10" fill="none"/><path d="M126.883 176.848l12.32 3.117" stroke-width="1.2" stroke="#00f" stroke-miterlimit="10" fill="none"/><path d="M139.203 179.965l12.32 3.117M169.238 164.863l12.32 3.117" stroke-width="1.2" stroke="#000" stroke-miterlimit="10" fill="none"/><path d="M181.56 167.98l12.32 3.118" stroke-width="1.2" stroke="#00f" stroke-miterlimit="10" fill="none"/><path d="M170.238 171.285l9.856 2.492" stroke-width="1.2" stroke="#000" stroke-miterlimit="10" fill="none"/><path d="M180.094 173.777l9.855 2.493" stroke-width="1.2" stroke="#00f" stroke-miterlimit="10" fill="none"/><path d="M169.238 164.863l-3.457-12.226" stroke-width="1.2" stroke="#000" stroke-miterlimit="10" fill="none"/><path d="M165.78 152.637l-3.46-12.227" stroke-width="1.2" stroke="#00f" stroke-miterlimit="10" fill="none"/><path d="M190.88 165.598h7v11h-7zm0 0" fill="#fff"/><use xlink:href="#a" x="190.879" y="174.261" fill="#00f"/><path d="M162.32 140.41L150 137.293" stroke-width="1.2" stroke="#00f" stroke-miterlimit="10" fill="none"/><path d="M150 137.293l-12.32-3.117" stroke-width="1.2" stroke="#000" stroke-miterlimit="10" fill="none"/><path d="M162.32 140.41l8.86-9.113" stroke-width="1.2" stroke="#00f" stroke-miterlimit="10" fill="none"/><path d="M171.18 131.297l8.86-9.11" stroke-width="1.2" stroke="#000" stroke-miterlimit="10" fill="none"/><path d="M159.32 134.91h7v11h-7zm0 0" fill="#fff"/><use xlink:href="#a" x="159.32" y="143.573" fill="#00f"/><path d="M140.56 133.36l-3.462-12.227" stroke-width="1.2" stroke="#000" stroke-miterlimit="10" fill="none"/><path d="M137.098 121.133l-3.46-12.227" stroke-width="1.2" stroke="#f00" stroke-miterlimit="10" fill="none"/><path d="M134.805 134.988l-3.46-12.226" stroke-width="1.2" stroke="#000" stroke-miterlimit="10" fill="none"/><path d="M131.344 122.762l-3.46-12.227" stroke-width="1.2" stroke="#f00" stroke-miterlimit="10" fill="none"/><path d="M137.68 134.176l-17.72 18.22" stroke-width="1.2" stroke="#000" stroke-miterlimit="10" fill="none"/><path d="M126.762 104.22h8v11h-8zm0 0" fill="#fff"/><use xlink:href="#c" x="126.762" y="112.882" fill="#f00"/><path d="M119.96 152.395l3.462 12.226" stroke-width="1.2" stroke="#000" stroke-miterlimit="10" fill="none"/><path d="M123.422 164.62l3.46 12.228" stroke-width="1.2" stroke="#00f" stroke-miterlimit="10" fill="none"/><path d="M126.41 153.21l2.766 9.782" stroke-width="1.2" stroke="#000" stroke-miterlimit="10" fill="none"/><path d="M129.176 162.992l2.77 9.785" stroke-width="1.2" stroke="#00f" stroke-miterlimit="10" fill="none"/><path d="M119.96 152.395l-24.636-6.235" stroke-width="1.2" stroke="#000" stroke-miterlimit="10" fill="none"/><path d="M123.883 171.348h7v11h-7zm0 0" fill="#fff"/><use xlink:href="#a" x="123.883" y="180.011" fill="#00f"/><path d="M95.324 146.16l-6.922-24.453M88.88 145.344l-5.536-19.563M77.605 164.383l17.72-18.223M88.402 121.707l-24.636-6.234M63.766 115.473l-17.72 18.218M66.28 121.465L52.106 136.04M63.766 115.473l-3.46-12.227" stroke-width="1.2" stroke="#000" stroke-miterlimit="10" fill="none"/><path d="M60.305 103.246l-3.46-12.226" stroke-width="1.2" stroke="#3cc" stroke-miterlimit="10" fill="none"/><path d="M46.047 133.69l6.922 24.458M52.97 158.148l24.635 6.235M56.898 152.973l19.71 4.988M52.97 158.148l-8.86 9.11" stroke-width="1.2" stroke="#000" stroke-miterlimit="10" fill="none"/><path d="M44.11 167.258l-8.86 9.11" stroke-width="1.2" stroke="#3cc" stroke-miterlimit="10" fill="none"/><path d="M29.25 170.867h6v11h-6zm0 0" fill="#fff"/><use xlink:href="#d" x="29.25" y="179.53" fill="#3cc"/><path d="M53.844 85.52h6v11h-6zm0 0" fill="#fff"/><use xlink:href="#d" x="53.844" y="94.183" fill="#3cc"/><path d="M180.04 122.188l24.636 6.234M204.676 128.422l17.72-18.22M222.395 110.203l24.636 6.23M226.324 105.027l19.71 4.99M215.473 85.746l6.922 24.457M247.03 116.434l17.72-18.22M264.75 98.215l-6.922-24.453M258.305 97.398l-5.535-19.562M257.828 73.762l-24.637-6.235M233.19 67.527l-17.717 18.22M235.707 73.516L221.53 88.094" stroke-width="1.2" stroke="#000" stroke-miterlimit="10" fill="none"/></g></svg>
